X: 20703
M: 6/8
L: 1/8
K: G
d2e c2A | GBd GBd | D2D DEF | G3- G2 :|
|: (f/g/) |\
a2f g2e | ded d2(f/g/) | afd ge^c | d2d d2(F/G/) |\


